src/assets/images/Group 39508.svg

<svg width="100" height="100" viewBox="0 0 100 100" fill="none" xmlns="http://www.w3.org/2000/svg">
<rect width="100" height="100" rx="10" fill="white"/>
<path d="M11 79.5862V70.1724H29.8276V89H11V79.5862ZM27.1379 79.5862V72.8621H13.6897V86.3103H27.1379V79.5862ZM16.3793 79.5862V75.5517H24.4483V83.6207H16.3793V79.5862ZM35.2069 87.6552V86.3103H32.5172V80.931H35.2069V72.8621H37.8966V70.1724H32.5172V67.4828H21.7586V64.7931H24.4483V62.1034H19.069V67.4828H16.3793V64.7931H11V62.1034H16.3793V56.7241H13.6897V59.4138H11V54.0345H16.3793V56.7241H19.069V59.4138H21.7586V56.7241H24.4483V59.4138H29.8276V56.7241H27.1379V54.0345H19.069V51.3448H27.1379V48.6552H19.069V45.9655H16.3793V48.6552H11V40.5862H13.6897V43.2759H29.8276V40.5862H27.1379V37.8966H21.7586V40.5862H19.069V37.8966H13.6897V32.5172H19.069V37.8966H21.7586V35.2069H27.1379V32.5172H29.8276V35.2069H27.1379V37.8966H29.8276V40.5862H32.5172V35.2069H35.2069V32.5172H32.5172V24.4483H37.8966V27.1379H40.5862V29.8276H37.8966V32.5172H40.5862V48.6552H35.2069V45.9655H32.5172V48.6552H29.8276V51.3448H27.1379V54.0345H29.8276V56.7241H32.5172V59.4138H37.8966V56.7241H35.2069V54.0345H32.5172V51.3448H37.8966V56.7241H40.5862V51.3448H43.2759V56.7241H45.9655V48.6552H48.6552V45.9655H51.3448V48.6552H48.6552V51.3448H51.3448V54.0345H59.4138V51.3448H56.7241V48.6552H54.0345V43.2759H51.3448V40.5862H54.0345V37.8966H56.7241V35.2069H54.0345V32.5172H51.3448V37.8966H48.6552V35.2069H45.9655V37.8966H43.2759V35.2069H45.9655V32.5172H43.2759V24.4483H40.5862V21.7586H43.2759V24.4483H45.9655V13.6897H48.6552V19.069H54.0345V16.3793H51.3448V11H56.7241V13.6897H54.0345V16.3793H59.4138V13.6897H62.1034V11H67.4828V19.069H62.1034V16.3793H59.4138V21.7586H62.1034V29.8276H64.7931V27.1379H67.4828V40.5862H72.8621V37.8966H70.1724V32.5172H75.5517V40.5862H80.931V37.8966H78.2414V32.5172H80.931V37.8966H83.6207V35.2069H89V40.5862H86.3103V37.8966H83.6207V40.5862H80.931V48.6552H83.6207V51.3448H80.931V54.0345H75.5517V56.7241H72.8621V59.4138H67.4828V56.7241H64.7931V54.0345H62.1034V59.4138H64.7931V62.1034H72.8621V64.7931H78.2414V62.1034H75.5517V59.4138H78.2414V56.7241H80.931V59.4138H83.6207V62.1034H86.3103V56.7241H83.6207V54.0345H89V62.1034H86.3103V67.4828H89V72.8621H86.3103V80.931H89V83.6207H80.931V89H72.8621V86.3103H78.2414V83.6207H72.8621V78.2414H70.1724V83.6207H67.4828V86.3103H70.1724V89H64.7931V80.931H62.1034V86.3103H59.4138V83.6207H56.7241V72.8621H59.4138V80.931H62.1034V72.8621H64.7931V67.4828H62.1034V64.7931H59.4138V62.1034H62.1034V59.4138H59.4138V56.7241H56.7241V67.4828H59.4138V70.1724H54.0345V75.5517H51.3448V80.931H54.0345V83.6207H51.3448V86.3103H56.7241V89H51.3448V86.3103H48.6552V83.6207H45.9655V89H35.2069V87.6552ZM43.2759 83.6207V80.931H45.9655V72.8621H40.5862V75.5517H43.2759V78.2414H37.8966V80.931H35.2069V83.6207H37.8966V86.3103H43.2759V83.6207ZM80.931 80.931V78.2414H83.6207V72.8621H86.3103V70.1724H83.6207V62.1034H80.931V70.1724H83.6207V72.8621H80.931V75.5517H78.2414V83.6207H80.931V80.931ZM67.4828 79.5862V78.2414H64.7931V80.931H67.4828V79.5862ZM51.3448 74.2069V72.8621H48.6552V75.5517H51.3448V74.2069ZM75.5517 71.5172V67.4828H67.4828V75.5517H75.5517V71.5172ZM70.1724 71.5172V70.1724H72.8621V72.8621H70.1724V71.5172ZM48.6552 68.8276V67.4828H54.0345V64.7931H48.6552V62.1034H45.9655V64.7931H48.6552V67.4828H43.2759V64.7931H40.5862V67.4828H37.8966V64.7931H35.2069V62.1034H32.5172V59.4138H29.8276V62.1034H27.1379V64.7931H29.8276V62.1034H32.5172V64.7931H35.2069V67.4828H37.8966V70.1724H48.6552V68.8276ZM40.5862 60.7586V59.4138H37.8966V62.1034H40.5862V60.7586ZM54.0345 59.4138V56.7241H48.6552V59.4138H51.3448V62.1034H54.0345V59.4138ZM70.1724 55.3793V54.0345H67.4828V56.7241H70.1724V55.3793ZM75.5517 52.6897V51.3448H78.2414V43.2759H75.5517V45.9655H72.8621V48.6552H70.1724V45.9655H64.7931V43.2759H62.1034V40.5862H64.7931V32.5172H62.1034V29.8276H59.4138V27.1379H56.7241V29.8276H54.0345V21.7586H56.7241V24.4483H59.4138V21.7586H56.7241V19.069H54.0345V21.7586H51.3448V29.8276H54.0345V32.5172H56.7241V29.8276H59.4138V37.8966H56.7241V40.5862H54.0345V43.2759H56.7241V48.6552H59.4138V45.9655H64.7931V48.6552H67.4828V51.3448H72.8621V54.0345H75.5517V52.6897ZM72.8621 50V48.6552H75.5517V51.3448H72.8621V50ZM29.8276 47.3103V45.9655H32.5172V43.2759H29.8276V45.9655H27.1379V48.6552H29.8276V47.3103ZM37.8966 41.931V40.5862H35.2069V43.2759H37.8966V41.931ZM37.8966 28.4828V27.1379H35.2069V29.8276H37.8966V28.4828ZM48.6552 27.1379V24.4483H45.9655V29.8276H48.6552V27.1379ZM64.7931 15.0345V13.6897H62.1034V16.3793H64.7931V15.0345ZM86.3103 87.6552V86.3103H89V89H86.3103V87.6552ZM86.3103 48.6552V45.9655H83.6207V43.2759H86.3103V45.9655H89V51.3448H86.3103V48.6552ZM11 20.4138V11H29.8276V29.8276H11V20.4138ZM27.1379 20.4138V13.6897H13.6897V27.1379H27.1379V20.4138ZM16.3793 20.4138V16.3793H24.4483V24.4483H16.3793V20.4138ZM70.1724 20.4138V11H89V29.8276H70.1724V20.4138ZM86.3103 20.4138V13.6897H72.8621V27.1379H86.3103V20.4138ZM75.5517 20.4138V16.3793H83.6207V24.4483H75.5517V20.4138ZM32.5172 20.4138V19.069H35.2069V21.7586H32.5172V20.4138ZM37.8966 17.7241V16.3793H35.2069V11H37.8966V13.6897H40.5862V11H43.2759V13.6897H40.5862V19.069H37.8966V17.7241Z" fill="#494953"/>
</svg>

<svg xmlns="http://www.w3.org/2000/svg" width="100" height="100" fill="none"><rect width="100" height="100" fill="#fff" rx="10"/><path fill="#494953" d="M11 79.586v-9.414h18.828V89H11zm16.138 0v-6.724H13.69V86.31h13.448zm-10.759 0v-4.034h8.07v8.069h-8.07zm18.828 8.07V86.31h-2.69v-5.379h2.69v-8.069h2.69v-2.69h-5.38v-2.69H21.76v-2.689h2.69v-2.69h-5.38v5.38h-2.69v-2.69H11v-2.69h5.38v-5.379h-2.69v2.69H11v-5.38h5.38v2.69h2.689v2.69h2.69v-2.69h2.69v2.69h5.379v-2.69h-2.69v-2.69h-8.069v-2.69h8.069v-2.689h-8.069v-2.69h-2.69v2.69H11v-8.069h2.69v2.69h16.138v-2.69h-2.69v-2.69h-5.38v2.69H19.07v-2.69h-5.38v-5.379h5.38v5.38h2.69v-2.69h5.379v-2.69h2.69v2.69h-2.69v2.69h2.69v2.69h2.69v-5.38h2.689v-2.69h-2.69v-8.069h5.38v2.69h2.69v2.69h-2.69v2.69h2.69v16.137h-5.38v-2.69h-2.69v2.69h-2.69v2.69h-2.69v2.69h2.69v2.69h2.69v2.689h5.38v-2.69h-2.69v-2.69h-2.69v-2.69h5.38v5.38h2.69v-5.38h2.689v5.38h2.69v-8.069h2.69v-2.69h2.689v2.69h-2.69v2.69h2.69v2.69h8.069v-2.69h-2.69v-2.69h-2.69v-5.38h-2.69v-2.689h2.69v-2.69h2.69v-2.69h-2.69v-2.689h-2.69v5.38h-2.689v-2.69h-2.69v2.69h-2.69v-2.69h2.69v-2.69h-2.69v-8.069h-2.689v-2.69h2.69v2.69h2.69V13.69h2.69v5.379h5.379v-2.69h-2.69V11h5.38v2.69h-2.69v2.69h5.379v-2.69h2.69V11h5.379v8.069h-5.38v-2.69h-2.69v5.38h2.69v8.069h2.69v-2.69h2.69v13.448h5.38v-2.69h-2.69v-5.379h5.379v8.07h5.379v-2.69h-2.69v-5.38h2.69v5.38h2.69v-2.69H89v5.38h-2.69v-2.69h-2.69v2.69h-2.689v8.068h2.69v2.69h-2.69v2.69h-5.38v2.69h-2.689v2.689h-5.38v-2.69h-2.689v-2.69h-2.69v5.38h2.69v2.69h8.07v2.69h5.378v-2.69h-2.69v-2.69h2.69v-2.69h2.69v2.69h2.69v2.69h2.69v-5.38h-2.69v-2.69H89v8.07h-2.69v5.379H89v5.38h-2.69v8.068H89v2.69h-8.069V89h-8.069v-2.69h5.38v-2.69h-5.38v-5.379h-2.69v5.38h-2.69v2.69h2.69V89h-5.379v-8.069h-2.69v5.38h-2.69v-2.69h-2.689V72.862h2.69v8.069h2.69v-8.069h2.69v-5.38h-2.69v-2.689h-2.69v-2.69h2.69v-2.69h-2.69v-2.689h-2.69v10.759h2.69v2.69h-5.38v5.379h-2.69v5.379h2.69v2.69h-2.69v2.69h5.38V89h-5.38v-2.69h-2.689v-2.69h-2.69V89H35.207zm8.069-4.035v-2.69h2.69v-8.069h-5.38v2.69h2.69v2.69h-5.38v2.689h-2.69v2.69h2.69v2.69h5.38zm37.655-2.69v-2.69h2.69v-5.379h2.69v-2.69h-2.69v-8.069h-2.69v8.07h2.69v2.69h-2.69v2.689h-2.69v8.069h2.69zm-13.448-1.345v-1.345h-2.69v2.69h2.69zm-16.138-5.38v-1.344h-2.69v2.69h2.69zm24.207-2.689v-4.034h-8.07v8.069h8.07zm-5.38 0v-1.345h2.69v2.69h-2.69zm-21.517-2.69v-1.344h5.38v-2.69h-5.38v-2.69h-2.69v2.69h2.69v2.69h-5.38v-2.69h-2.689v2.69h-2.69v-2.69h-2.69v-2.69h-2.689v-2.69h-2.69v2.69h-2.69v2.69h2.69v-2.69h2.69v2.69h2.69v2.69h2.69v2.69h10.758zm-8.069-8.068v-1.345h-2.69v2.69h2.69zm13.449-1.345v-2.69h-5.38v2.69h2.69v2.69h2.69zm16.137-4.035v-1.344h-2.69v2.69h2.69zm5.38-2.69v-1.344h2.69v-8.07h-2.69v2.69h-2.69v2.69h-2.69v-2.69h-5.379v-2.69h-2.69v-2.689h2.69v-8.069h-2.69v-2.69h-2.69v-2.69h-2.689v2.69h-2.69V21.76h2.69v2.69h2.69v-2.69h-2.69v-2.69h-2.69v2.69h-2.69v8.069h2.69v2.69h2.69v-2.69h2.69v8.069h-2.69v2.69h-2.69v2.689h2.69v5.38h2.69v-2.69h5.38v2.69h2.689v2.689h5.38v2.69h2.689zM72.862 50v-1.345h2.69v2.69h-2.69zm-43.034-2.69v-1.345h2.69v-2.69h-2.69v2.69h-2.69v2.69h2.69zm8.069-5.379v-1.345h-2.69v2.69h2.69zm0-13.448v-1.345h-2.69v2.69h2.69zm10.758-1.345v-2.69h-2.69v5.38h2.69zm16.138-12.104V13.69h-2.69v2.69h2.69zM86.31 87.655V86.31H89V89h-2.69zm0-39v-2.69h-2.69v-2.69h2.69v2.69H89v5.38h-2.69zM11 20.414V11h18.828v18.828H11zm16.138 0V13.69H13.69v13.448h13.448zm-10.759 0v-4.035h8.07v8.07h-8.07zm53.793 0V11H89v18.828H70.172zm16.138 0V13.69H72.862v13.448H86.31zm-10.758 0v-4.035h8.069v8.07h-8.07zm-43.035 0v-1.345h2.69v2.69h-2.69zm5.38-2.69V16.38h-2.69V11h2.69v2.69h2.69V11h2.689v2.69h-2.69v5.379h-2.69z"/></svg>
